X:38
T: ICH GING IM NAECHTLICH STILLEN HAINE
N: E0650
O: Europa, Mitteleuropa, Deutschland, Hessen
R: Liebes - Lied
M: 4/4
L: 1/8
K: A
EEE | A3AA2GA | cBB2z2
GA | B3BBBAB | c2edc2z
e | B3eBBAF | E4z2
EB | B3BAGFE | cAA2z2
Ac | e3cfedc | dBB2z2
f2 | eGABc2B2 | A4z

